X:13
C:Page 07
T:Paddy O’Carroll. MBe.13
S:Matthew Betham MS, Towcett Cumbria, 1815
O:England;Cumbria;Towcett
Z:VMP – Hugh Taylor, 2012
M:6/8
L:1/8
Q:3/8=120
R:.Jig
N:NB-The first E is not written dotted. I have made it dotted.
N:A widespread tune, inc. a version in Rook from Wigton very similar to this one.
K:D
(A/G/)|(FD).D FDD|F>GF FED|AFF dFF|”^NB”E>FE E2 (A/G/)|
(FD).D FDD|F>GF FED|AFF dFF|E>FE D2||
a/g/|(fd)d (ec)c|BdB AGF|fda eca|dB^g a2 (a/g/)|
fdd ecc|BdB AGF|AFF dFF|E>FE D2|]

